X:1
T:Title
%%score ( 1 2 ) { 3 | 4 }
L:1/8
Q:1/4=80
M:4/4
K:C
V:1 treble nm="Grand Piano, SOPRANO ALTO"
V:2 treble 
V:3 bass nm="Grand Piano, TENOR BASS"
V:4 bass 
V:1
 z4 z2 z C | [CE]2 [CE][CE] [CE] [EG]2 [CE] | [DF]2 [B,D][DF] [CE]2 z [CE] | E2 z2 z4 | %4
w: 1.~Look~|out,~ lit tle~ wom an!~ Look~|out,~ lit tle~ man!~ Do~|be~|
 [C^F]2 [CE][CF] [B,G]2 z [EG] | [DF]2 [DF][DF] [DF]2 [EG][FA] | [CE]2 [CE][DF] [EG]3 [EG] | %7
w: ev er~ you~ can,~ For~|each~ of~ you~ car ry~ a~|treas ure~ too~ rare~ To~|
 A2 Bc c2 GE | [EG]2 [DF][B,D] C2 z C | .[CE]2 z [Ec] [Ge]3 [CE] | [EG]2 [DF][DF] [CE] [CE]2 C | %11
w: risk~ an y~ tri fling,~ so~|"Han dle~ with~ care!"~ *|||
 .[CE]2 z [Ec] [Ge]2 [B,D][B,D] | C6 z2 |] %13
w: ||
V:2
 x8 | x8 | x8 | C2- [C-D][CD] [B,D]2 [B,G][B,G] | x8 | x8 | x8 | F4 C4 | x8 | x8 | x8 | x8 | x8 |] %13
w: |||* * as~ * ful~ as~||||||||||
V:3
 z4 z2 z E, | G,4 G, C2 G, | G,4 G,2 z G, | ^F,4 G,4 | A,4 G,2 z2 | G,4 G,4 | G,4 C3 C | %7
 C3 A, G,3 G, | G,3 F, E,2 z E, | .G,2 z G, C3 G, | G,4 G,3 E, | .G,2 z G, C2 G,2 | E,6 z2 |] %13
V:4
 z4 z2 z C, | C,4 C, C,2 C, | G,,4 C,2 z C, | D,4 D,4 | D,4 G,,2 z2 | G,,4 G,,4 | C,4 C,3 C, | %7
 F,3 F, E,3 C, | G,,3 G,, C,2 z C, | .C,2 z C, C,3 C, | G,,4 C,3 C, | .G,,2 z G,, G,,2 G,,2 | %12
 C,6 z2 |] %13

